X: 4
T: The Lochaber Badger
R: reel
M: 4/4
L: 1/8
K: Emin
|:B2 AG AG E2|E2 DE GDEG|B2 AG AG E2|EDGD E4|
B2 AG AG E2|E2 DE GDEG|B2 AG AG E2|EDGD E3 ||
|:E2 DE GE A2|A2 AG Bd B2|B2 AG AG E2|EDGD E3 |
E2 DE GE A2|A2 AG Bd B2|B2 AG AG E2|EDGD E3||


Tune 5758	Setting 5758

